X:1
T:Title
L:1/8
M:2/4
K:Ab
V:1 treble nm="Grand Piano"
V:1
 z2 z[Q:1/4=100] A | F>F- F/GA/ | G F2 A | F>F- F/=EF/ | G G2 B | G>G- G/AB/ | A G2 c | %7
 c>B- B/AB/ | c c2 A | F>F- F/GA/ | G F2 A | F>F- F/=EF/ | G G2 B | G>G- G/AB/ | A G2 c | %15
 c>A- A/GA/ |[M:3/8] G F2 |[M:1/8] C |[M:2/4] D>F- F/ED/ | D C2 C | A>B- B/AG/ | G F2 E/F/ | %22
 G>G- G/GF/ | F E2 E | D>D- D/=EF/ | G G2 c | c>A- A/GA/ | G F2 B | B>G- G/FG/ | F E2 A | %30
 A>F- F/GA/ | B B2 G/A/ | B>d- d/cB/ | c .c3 |] %34

